!!!OTL: Over the River and Through the Woods
!!!COM: unknown
!!!ODT: 1850 (19th century)
!!!YOR: The Folksong Fake Book
!!!YOY: 2000
!!!AST: Folk song
!!!YEC: Brian Luke, 2001
**kern	**harm
*k[]	*k[]
*M6/8	*M6/8
*C:	*C:
*>A	*>A
=1	=1
8g	I
8g	.
8g	.
8g	.
8e	.
8f	.
=2	=2
4g	.
8g	.
4g	.
8g	.
=3	=3
8cc	IV
8cc	.
8cc	.
4b	.
8a	.
=4	=4
[4.g	I
4g]	.
8g	.
=5	=5
8f	V7
8f	.
8f	.
4f	.
8f	.
=6	=6
8e	I
8e	.
8e	.
4e	.
16e	.
16e	.
=7	=7
4d	V7/V
8d	.
4d	.
8e	.
=8	=8
4.d	V;
4g	.
8r	.
*>A'	*>A'
=9	=9
8g	I
8g	.
8g	.
8g	.
8e	.
8f	.
=10	=10
4g	.
8g	.
4g	.
8g	.
=11	=11
4cc	IV
8cc	.
4b	.
8a	.
=12	=12
[4.g	I
4g]	.
8g	.
=13	=13
4cc	IV
8cc	.
4b	viio7/V
8a	.
=14	=14
4g	Ic
8e	.
4c	IV
8d	iv
=15	=15
8e	I
8e	.
8f	.
4e	V7
8d	.
=16	=16
2.c	I;
*-	*-
